X:240
T:Anglais #240
T: efter Björkström
M:2/4
L:1/16
K: Bb
Q: 100
f2 | (bf)dB F2b2| (ge)BG E2g2| (fe)cA FAcA| {c}B2dc B2:|
|:[K:F](AB)| c(fef) a(fef)| (gb)eg (fa)AB| c(fef) a(fef)| (gb)eg f2:|
